packages/icon/src/svg/window.icon.svg

<svg viewBox="0 0 24 24" xmlns="http://www.w3.org/2000/svg"><path d="M22 7.975h-2v2h2v2h-2v2h1.999l-.002 6H8v-2H6v2c0 1.104.897 2 2 2h14c1.103 0 2-.896 2-2v-10c0-1.102-.897-2-2-2zm-4 6v-10c0-1.102-.897-2-2-2H2c-1.104 0-2 .898-2 2v10c0 1.104.896 2 2 2h14c1.103 0 2-.897 2-2zm-2-8h-6v-2h6v2zm-10 0v-2h2v2H6zm-2-2v2H2v-2h2zm-2 10v-6h13.999l-.002 6H2z" /></svg>

<?xml version="1.0" encoding="UTF-8"?>
<svg width="24px" height="24px" viewBox="0 0 24 24" version="1.1" xmlns="http://www.w3.org/2000/svg" xmlns:xlink="http://www.w3.org/1999/xlink">
    <!-- Generator: Sketch 46.1 (44463) - http://www.bohemiancoding.com/sketch -->
    <title>Icon/window.icon</title>
    <desc>Created with Sketch.</desc>
    <defs>
        <path d="M22,7.975 L20,7.975 L20,9.975 L22,9.975 L22,11.975 L20,11.975 L20,13.975 L21.999,13.975 L21.997,19.975 L8,19.975 L8,17.975 L6,17.975 L6,19.975 C6,21.079 6.897,21.975 8,21.975 L22,21.975 C23.103,21.975 24,21.079 24,19.975 L24,9.975 C24,8.873 23.103,7.975 22,7.975 Z M18,13.975 L18,3.975 C18,2.873 17.103,1.975 16,1.975 L2,1.975 C0.896,1.975 0,2.873 0,3.975 L0,13.975 C0,15.079 0.896,15.975 2,15.975 L16,15.975 C17.103,15.975 18,15.078 18,13.975 Z M16,5.975 L10,5.975 L10,3.975 L16,3.975 L16,5.975 Z M6,5.975 L6,3.975 L8,3.975 L8,5.975 L6,5.975 Z M4,3.975 L4,5.975 L2,5.975 L2,3.975 L4,3.975 L4,3.975 Z M2,13.975 L2,7.975 L15.999,7.975 L15.997,13.975 L2,13.975 Z" id="path-1"></path>
    </defs>
    <g id="Symbols" stroke="none" stroke-width="1" fill="none" fill-rule="evenodd">
        <g id="Icon/window">
            <mask id="mask-2" fill="white">
                <use xlink:href="#path-1"></use>
            </mask>
            <use id="Shape" fill="#000000" fill-rule="nonzero" xlink:href="#path-1"></use>
            <g id="Color/Neutral/White" mask="url(#mask-2)" fill="#FFFFFF">
                <rect id="222222-Fill" x="0" y="0" width="24" height="24"></rect>
            </g>
        </g>
    </g>
</svg>
